images/instagram.svg

<svg width="56" height="56" viewBox="0 0 56 56" fill="none" xmlns="http://www.w3.org/2000/svg">
<path d="M20.02 9H35.98C42.06 9 47 13.94 47 20.02V35.98C47 38.9027 45.839 41.7057 43.7723 43.7723C41.7057 45.839 38.9027 47 35.98 47H20.02C13.94 47 9 42.06 9 35.98V20.02C9 17.0973 10.161 14.2943 12.2277 12.2277C14.2943 10.161 17.0973 9 20.02 9ZM19.64 12.8C17.8259 12.8 16.0861 13.5206 14.8034 14.8034C13.5206 16.0861 12.8 17.8259 12.8 19.64V36.36C12.8 40.141 15.859 43.2 19.64 43.2H36.36C38.1741 43.2 39.9139 42.4794 41.1966 41.1966C42.4794 39.9139 43.2 38.1741 43.2 36.36V19.64C43.2 15.859 40.141 12.8 36.36 12.8H19.64ZM37.975 15.65C38.6049 15.65 39.209 15.9002 39.6544 16.3456C40.0998 16.791 40.35 17.3951 40.35 18.025C40.35 18.6549 40.0998 19.259 39.6544 19.7044C39.209 20.1498 38.6049 20.4 37.975 20.4C37.3451 20.4 36.741 20.1498 36.2956 19.7044C35.8502 19.259 35.6 18.6549 35.6 18.025C35.6 17.3951 35.8502 16.791 36.2956 16.3456C36.741 15.9002 37.3451 15.65 37.975 15.65ZM28 18.5C30.5196 18.5 32.9359 19.5009 34.7175 21.2825C36.4991 23.0641 37.5 25.4804 37.5 28C37.5 30.5196 36.4991 32.9359 34.7175 34.7175C32.9359 36.4991 30.5196 37.5 28 37.5C25.4804 37.5 23.0641 36.4991 21.2825 34.7175C19.5009 32.9359 18.5 30.5196 18.5 28C18.5 25.4804 19.5009 23.0641 21.2825 21.2825C23.0641 19.5009 25.4804 18.5 28 18.5ZM28 22.3C26.4883 22.3 25.0384 22.9005 23.9695 23.9695C22.9005 25.0384 22.3 26.4883 22.3 28C22.3 29.5117 22.9005 30.9616 23.9695 32.0305C25.0384 33.0995 26.4883 33.7 28 33.7C29.5117 33.7 30.9616 33.0995 32.0305 32.0305C33.0995 30.9616 33.7 29.5117 33.7 28C33.7 26.4883 33.0995 25.0384 32.0305 23.9695C30.9616 22.9005 29.5117 22.3 28 22.3Z" fill="#5B5B5B"/>
</svg>

<?xml version="1.0" encoding="utf-8"?>
<!-- Generator: Adobe Illustrator 27.0.0, SVG Export Plug-In . SVG Version: 6.00 Build 0)  -->
<svg version="1.1" id="圖層_1" xmlns="http://www.w3.org/2000/svg" xmlns:xlink="http://www.w3.org/1999/xlink" x="0px" y="0px"
	 viewBox="0 0 56 56" style="enable-background:new 0 0 56 56;" xml:space="preserve">
<style type="text/css">
	.st0{fill:#5B5B5B;}
</style>
<path class="st0" d="M20,9h16c6.1,0,11,4.9,11,11v16c0,2.9-1.2,5.7-3.2,7.8C41.7,45.8,38.9,47,36,47H20c-6.1,0-11-4.9-11-11V20
	c0-2.9,1.2-5.7,3.2-7.8C14.3,10.2,17.1,9,20,9z M19.6,12.8c-1.8,0-3.6,0.7-4.8,2c-1.3,1.3-2,3-2,4.8v16.7c0,3.8,3.1,6.8,6.8,6.8
	h16.7c1.8,0,3.6-0.7,4.8-2c1.3-1.3,2-3,2-4.8V19.6c0-3.8-3.1-6.8-6.8-6.8H19.6z M38,15.6c0.6,0,1.2,0.3,1.7,0.7
	c0.4,0.4,0.7,1,0.7,1.7s-0.3,1.2-0.7,1.7c-0.4,0.4-1,0.7-1.7,0.7c-0.6,0-1.2-0.3-1.7-0.7c-0.4-0.4-0.7-1-0.7-1.7s0.3-1.2,0.7-1.7
	C36.7,15.9,37.3,15.6,38,15.6z M28,18.5c2.5,0,4.9,1,6.7,2.8c1.8,1.8,2.8,4.2,2.8,6.7s-1,4.9-2.8,6.7c-1.8,1.8-4.2,2.8-6.7,2.8
	s-4.9-1-6.7-2.8c-1.8-1.8-2.8-4.2-2.8-6.7s1-4.9,2.8-6.7C23.1,19.5,25.5,18.5,28,18.5z M28,22.3c-1.5,0-3,0.6-4,1.7
	c-1.1,1.1-1.7,2.5-1.7,4s0.6,3,1.7,4c1.1,1.1,2.5,1.7,4,1.7s3-0.6,4-1.7c1.1-1.1,1.7-2.5,1.7-4s-0.6-3-1.7-4
	C31,22.9,29.5,22.3,28,22.3z"/>
</svg>
